X: 10902
T: The MAID OF ISLA
Q: "Slow"
%R: air, strathspey
B: "Edinburgh Repository of Music" v.1 p.90 #2
F: http://digital.nls.uk/special-collections-of-printed-music/pageturner.cfm?id=87776133
Z: 2015 John Chambers <jc:trillian.mit.edu>
M: C
L: 1/16
K: F
A2 |\
(.F2.F2) c3A Tc3dc3A | (.F2.F2) c3A d3c A4 |\
F2~F2 c2A2 Tc3dc2A2 | d3e{e}f3d c2A2 G2 :|
c2 |\
Tf2g2f2d2 Tc3dc2A2 | Tf3gf2d2 (c2d2)A2c2 |\
f3gf2d2 c2d2c2A2 | d3e{e}f2d2 c2A2G4 |
Tf3g (gfe)d ~c3d (dc)(BA) | ~f3a (gf)(ed) c2a2A3c |\
~f3gd3f c3dHf3g | (ag)(fe) (gf)(ed) (dc)(BA) G2 |]

%%sep 2 1 500
%%sep 1 1 500

